X:340
T: Joe Conway's
S: "Johnny O'Leary of Sliabh Luachra" (#26)
Z: B.Black
L: 1/8
M: 6/8
R: jig
K: G
g|: edA G3|B/c/BA Bdd|edA G2G|BFG gfg|
edA G2A|Bdd Bdd|eag edB|1 BAA A2G :|2\
BAA A3||
e2f ged|eaf ged|e3 ged|efg a2a|
aba age|ged B/c/^cd|eag edB|BAA A3 :|
